image/se.svg

<svg fill="none" height="66" viewBox="0 0 99 66" width="99" xmlns="http://www.w3.org/2000/svg"><g fill="#ff4d00" stroke="#ff4d00" stroke-miterlimit="10" stroke-width=".58815"><path d="m.595032 43.3903h8.701478c-.14772 1.3097-.20785 2.6279-.17999 3.9457-.10786 3.2557.47489 6.4972 1.70988 9.5114-6.25788-2.2705-10.113687-6.424-10.231368-13.4571zm39.388568 8.2515c0-8.1615-4.1535-11.7681-12.1142-14.8001l-12.1143-4.6657c-7.80152-3.0528-13.45714-6.7286-13.45714-13.1042 0-4.8457 2.69278-8.2515 7.44848-10.22438-.46562 1.33498-.69973 2.73968-.69224 4.15348 0 6.9985 3.7727 9.6913 12.1142 12.9172l12.1143 4.7557c8.1615 3.2328 13.4571 7.8085 13.4571 14.6271 0 4.9356-2.5128 8.7914-7.5384 11.1243.556-1.5326.8304-3.1532.8099-4.7834zm-16.51-51.315872c6.8186 0 11.3043 2.768962 13.3672 8.431492-4.3856-1.50664-9.0007-2.23522-13.6372-2.15286-5.3856 0-9.9613.69224-13.45716 2.24286 1.73056-4.84569 6.39636-8.521492 13.75486-8.521492zm-12.6472 56.521472c4.1534 1.433 9.1514 2.0768 14.7101 2.0768s10.2313-.9 13.6371-2.5129c-1.7929 5.1157-6.5486 8.8815-14.1771 8.8815-6.7908-.0139-11.6365-2.9767-14.1424-8.4454zm27.2743-39.8385c.0549-2.8023-.3713-5.5932-1.2599-8.25148 5.7456 2.15288 9.6014 6.00868 9.7814 11.57428h-8.6461c.0623-1.1699.1522-2.2429.1522-3.3228z"/><path d="m56.985 19.2726v-17.87367h40.8423v6.45862h-33.3038v20.63575c-5.6556-.63-7.5385-3.4059-7.5385-9.2207zm0 25.1215c0-4.8457 1.8829-8.4316 7.5385-9.3315v22.6986h34.1829v6.4656h-41.7214zm7.5385-15.8801c.9209.0775 1.8451.1075 2.769.09h28.8319v6.2786h-28.7973c-.9255.0098-1.8499.0699-2.7689.18z"/></g></svg>

<svg width="99" height="66" viewBox="0 0 99 66" fill="none" xmlns="http://www.w3.org/2000/svg">
<path d="M0.595032 43.3903H9.29651C9.14879 44.7 9.08866 46.0182 9.11652 47.336C9.00866 50.5917 9.59141 53.8332 10.8264 56.8474C4.56852 54.5769 0.712713 50.4234 0.595032 43.3903ZM39.9836 51.6418C39.9836 43.4803 35.8301 39.8737 27.8694 36.8417L15.7551 32.176C7.95358 29.1232 2.29796 25.4474 2.29796 19.0718C2.29796 14.2261 4.99074 10.8203 9.74644 8.84742C9.28082 10.1824 9.04671 11.5871 9.0542 13.0009C9.0542 19.9994 12.8269 22.6922 21.1684 25.9181L33.2827 30.6738C41.4442 33.9066 46.7398 38.4823 46.7398 45.3009C46.7398 50.2365 44.227 54.0923 39.2014 56.4252C39.7574 54.8926 40.0318 53.272 40.0113 51.6418H39.9836ZM23.4736 0.325928C30.2922 0.325928 34.7779 3.09489 36.8408 8.75742C32.4552 7.25078 27.8401 6.5222 23.2036 6.60456C17.818 6.60456 13.2423 7.2968 9.74644 8.84742C11.477 4.00173 16.1428 0.325928 23.5013 0.325928H23.4736ZM10.8264 56.8474C14.9798 58.2804 19.9778 58.9242 25.5365 58.9242C31.0952 58.9242 35.7678 58.0242 39.1736 56.4113C37.3807 61.527 32.625 65.2928 24.9965 65.2928C18.2057 65.2789 13.36 62.3161 10.8541 56.8474H10.8264ZM38.1007 17.0089C38.1556 14.2066 37.7294 11.4157 36.8408 8.75742C42.5864 10.9103 46.4422 14.7661 46.6222 20.3317H37.9761C38.0384 19.1618 38.1283 18.0888 38.1283 17.0089H38.1007Z" fill="#FF4D00" stroke="#FF4D00" stroke-width="0.58815" stroke-miterlimit="10"/>
<path d="M56.985 19.2726V1.39893H97.8273V7.85755H64.5235V28.4933C58.8679 27.8633 56.985 25.0874 56.985 19.2726ZM56.985 44.3941C56.985 39.5484 58.8679 35.9625 64.5235 35.0626V57.7612H98.7064V64.2268H56.985V44.3941ZM64.5235 28.514C65.4444 28.5915 66.3686 28.6215 67.2925 28.604H96.1244V34.8826H67.3271C66.4016 34.8924 65.4772 34.9525 64.5582 35.0626L64.5235 28.514Z" fill="#FF4D00" stroke="#FF4D00" stroke-width="0.58815" stroke-miterlimit="10"/>
</svg>
